X:1
T:Title
%%score { 1 | ( 2 3 ) }
L:1/8
M:6/8
K:G
V:1 treble nm="Grand Piano"
V:2 bass 
V:3 bass 
V:1
 z3 z2[Q:1/4=90] D/D/ | G>FG [EA][EG]E | D3- D2 D | G>FG [FA][EG][FA] | B3- B2 d | d>ed [Gd]cB | %6
 c3- c2 d | G>FG BBA |[M:5/8] [G,B,G]-[G,B,G]- [G,B,G]3 |[M:1/8] [B,DG] |[M:3/4] F3 F EF | G4- GG | %12
 [FA]3 [FA] [EG][FA] | [GB]4- [GB][Dd] | [Ec]3 c B[Fc] | [Ge][Gd]- [Gd]3 [EAc] | %16
 [DGB]4 [DAc][CFA] |[M:5/8] [B,G]-[B,G]- [B,G]3 |] %18
V:2
 z3 z2 [G,B,]/[G,B,]/ | [G,B,D]>[A,CD][G,B,D] [C,C][C,C][E,G,C] | [G,B,]3- [G,B,]2 [G,B,] | %3
 [G,B,D]>[A,CD][G,B,D] [D,D][D,D][D,D] | [G,DG]3- [G,DG]2 [G,B,G] | %5
 [G,B,G]>[G,CG][G,B,G][K:bass] [E,B,][E,A,E][E,^G,E] | [A,E]3- [A,E]2 [F,A,D] | %7
 [G,B,D]>[A,CD][G,B,D] [D,G,D][D,G,D][D,F,D] |[M:5/8] G,,-G,,- G,,3 |[M:1/8] G,, | %10
[M:3/4] z2 z A, z2 | [G,B,D]4- [G,B,D][G,B,D] | [D,D]3 [D,D]2 [D,D] | [G,D]4- [G,D][B,,G,] | %14
 [C,G,]3 [D,F,D]2 [D,A,] | [G,C][G,B,]- [G,B,]3 C, | D,4 D,D, |[M:5/8] G,,-G,,- G,,3 |] %18
V:3
 x6 | x6 | x6 | x6 | x6 | x3[K:bass] x3 | x6 | x6 |[M:5/8] x5 |[M:1/8] x | %10
[M:3/4] [D,A,D]3 [D,D]- [D,G,D][D,A,D] | x6 | x6 | x6 | x6 | x6 | x6 |[M:5/8] x5 |] %18

